build/images/socials/instagramm.svg

<svg width="13" height="14" viewBox="0 0 13 14" fill="none" xmlns="http://www.w3.org/2000/svg">
<path d="M9.481 0.00012207H3.51898C1.57858 0.00012207 0 1.70013 0 3.78979V10.2105C0 12.3001 1.57858 14.0001 3.51898 14.0001H9.4811C11.4214 14.0001 13 12.3001 13 10.2105V3.78979C13 1.70013 11.4214 0.00012207 9.481 0.00012207V0.00012207ZM6.49999 10.8281C4.53995 10.8281 2.94541 9.11091 2.94541 7.00011C2.94541 4.8893 4.53995 3.1721 6.49999 3.1721C8.46002 3.1721 10.0546 4.8893 10.0546 7.00011C10.0546 9.11091 8.46002 10.8281 6.49999 10.8281ZM10.1396 4.07487C9.56035 4.07487 9.08923 3.56751 9.08923 2.94374C9.08923 2.31996 9.56035 1.8125 10.1396 1.8125C10.7188 1.8125 11.19 2.31996 11.19 2.94374C11.19 3.56751 10.7188 4.07487 10.1396 4.07487Z" fill="#BEBEBE"/>
</svg>

<svg width="13" height="14" fill="none" xmlns="http://www.w3.org/2000/svg"><path d="M9.481 0H3.519C1.579 0 0 1.7 0 3.79v6.42C0 12.3 1.579 14 3.519 14h5.962C11.421 14 13 12.3 13 10.21V3.79C13 1.7 11.421 0 9.481 0zM6.5 10.828c-1.96 0-3.555-1.717-3.555-3.828 0-2.11 1.595-3.828 3.555-3.828 1.96 0 3.555 1.717 3.555 3.828 0 2.11-1.595 3.828-3.555 3.828zm3.64-6.753c-.58 0-1.05-.507-1.05-1.131s.47-1.131 1.05-1.131c.579 0 1.05.507 1.05 1.13 0 .625-.471 1.132-1.05 1.132z" fill="#BEBEBE"/></svg>
